src/actions/symbolic/ui-packing-symbolic.svg

<svg width="16px" height="16px" version="1.1" viewBox="0 0 16 16" xmlns="http://www.w3.org/2000/svg">
 <path d="m1 3v10h1v-10h-1zm13 0v10h1v-10h-1zm-8.1719 2.1719-2.8281 2.8281 2.8281 2.8281 0.70703-0.70703-1.6211-1.6211h6.1719l-1.6211 1.6211 0.70703 0.70703 2.8281-2.8281-2.8281-2.8281-0.70703 0.70703 1.6211 1.6211h-6.1719l1.6211-1.6211-0.70703-0.70703z" fill="#363636" fill-rule="evenodd" stop-color="#000000"/>
</svg>

<svg xmlns="http://www.w3.org/2000/svg" width="16" height="16">
    <path fill="#050505" fill-opacity=".7" fill-rule="evenodd" d="M1 3v10h1V3H1zm13 0v10h1V3h-1zM5.828 5.172 3 8l2.828 2.828.707-.707L4.914 8.5h6.172l-1.621 1.621.707.707L13 8l-2.828-2.828-.707.707 1.62 1.621H4.915l1.621-1.621-.707-.707z"/>
</svg>
